X:1
T:Title
%%score { ( 1 4 5 ) | ( 2 3 ) }
L:1/8
M:3/4
K:Ab
V:1 treble nm="Grand Piano"
V:4 treble 
V:5 treble 
V:2 bass 
V:3 bass 
V:1
 z2 z2[Q:1/4=100] E2 | [Ec]3 [DB] [CA]2 | [FA]2 [EG]2 [DF]2 | [DF]2 [CE]2 C2 | [CE]4 [CE]2 | %5
 [A,DF]3 [A,EG] [A,FA]2 | [A,EA]2 [B,EG]2 [CEA]2 | c3 B B2 | B4 E2 | [Ec]3 [DB] [CA]2 | %10
 [A,FA]2 [A,EG]2 [A,DF]2 | [A,DF]2[K:bass] [A,CE]2 [E,A,C]2 | [A,CE]4 [A,CE]2 | %13
 [A,DF]3 [B,EG] [CFA]2 | [DGB]2 [EAc]2 [FAd]2 | [EAc]3 [CEA] [DEB]2 | [CEA]6 |[M:1/4] [ce]2 | %18
[M:3/4] [ce]3 d c2 | [Bd]4 z2 | [Bd]4 z2 | [Ac]4 z2 | [=Ec]4 z2 | [FA]2 [EG]2 [EA]2 | %24
 [=Dc]4[K:bass][K:treble] z2 | [EB]4 E2 | [Ec]3 [DB] [CA]2 | [FA]2 G2 [A,DF]2 | %28
 [A,DF]2[K:bass] [A,CE]2 [E,A,C]2 | [A,CE]4 [A,CE]2 | [A,DF]3 [B,EG] [CFA]2 | %31
 [DGB]2 [EAc]2 [FBd]2 | [EAc]3 [CEA] [DEB]2 | [CEA]6 |] %34
V:2
 z2 z2 E,2 | [A,,A,]3 [A,,A,] [A,,A,]2 | [D,A,]2 [D,A,]2 [D,A,]2 | [A,,A,]2 [A,,A,]2 [A,,A,]2 | %4
 [A,,A,]4 [A,,A,]2 | D,3 D, D,2 | C,2 B,,2 A,,2 | [A,E]3 [G,B,E] [F,A,=D]2 | [E,G,E]4 [E,G,]2 | %9
 [A,,A,]3 [A,,A,] [A,,A,]2 | D,2 D,2 D,2 | A,,2 A,,2 A,,2 | A,,4 A,,2 | D,3 B,, F,2 | E,2 A,2 D,2 | %15
 E,3 E, E,2 | A,,6 |[M:1/4] A,2 |[M:3/4] A,A, z[K:treble] B [A,A]2 | [E,G,]E, E,2 [E,G,]2 | %20
 [E,G,]E, z A, E,2 | A,,A,, A,,2 [A,,A,]2 | [C,G,]C, z =E [F,A,F]2 | [D,D][D,D] [D,D]2 [C,A,]2 | %24
 [B,,A,]B,, z =D [B,,A,]2 | [E,G,]E, E,D, [C,A,]B,, | [A,,A,]3 [A,,A,] [A,,A,]2 | z2 E2 D,2 | %28
 A,,2 A,,2 A,,2 | A,,4 A,,2 | D,3 B,, F,2 | E,2 A,2 D,2 | E,3 E, E,2 | A,,6 |] %34
V:3
 x6 | x6 | x6 | x6 | x6 | x6 | x6 | x6 | x6 | x6 | x6 | x6 | x6 | x6 | x6 | x6 | x6 |[M:1/4] x2 | %18
[M:3/4] z2 A,2[K:treble] z2 | x6 | z2 E,2 z2 | x6 | z2 C,2 z2 | x6 | z2 B,,2 z2 | x6 | x6 | %27
 [D,A,]4 z2 | x6 | x6 | x6 | x6 | x6 | x6 |] %34
V:4
 x6 | x6 | x6 | x6 | x6 | x6 | x6 | x6 | x6 | x6 | x6 | x2[K:bass] x4 | x6 | x6 | x6 | x6 | x6 | %17
[M:1/4] x2 |[M:3/4] x6 | z G, G,2 [Bd]2 | z G, G,[Ac] [DGB]2 | CE E2 [Ec]2 | z G, z B A2 | x6 | %24
 z[K:bass] G, z[K:treble] B [=DB]2 | z G, G,2 z G, | x6 | x6 | x2[K:bass] x4 | x6 | x6 | x6 | x6 | %33
 x6 |] %34
V:5
 x6 | x6 | x6 | x6 | x6 | x6 | x6 | x6 | x6 | x6 | x6 | x2[K:bass] x4 | x6 | x6 | x6 | x6 | x6 | %17
[M:1/4] x2 |[M:3/4] x6 | x6 | x6 | x6 | z2 G,2 z2 | x6 | z2[K:bass] F,2[K:treble] z2 | x6 | x6 | %27
 x6 | x2[K:bass] x4 | x6 | x6 | x6 | x6 | x6 |] %34

